public/assets/img/full-logo.svg

<?xml version="1.0" encoding="UTF-8" standalone="no"?>
<svg
   width="188"
   height="32"
   viewBox="0 0 188 32"
   fill="none"
   version="1.1"
   id="svg14"
   sodipodi:docname="full-logo1.svg"
   inkscape:version="1.3.2 (091e20e, 2023-11-25, custom)"
   xmlns:inkscape="http://www.inkscape.org/namespaces/inkscape"
   xmlns:sodipodi="http://sodipodi.sourceforge.net/DTD/sodipodi-0.dtd"
   xmlns="http://www.w3.org/2000/svg"
   xmlns:svg="http://www.w3.org/2000/svg">
  <sodipodi:namedview
     id="namedview14"
     pagecolor="#ffffff"
     bordercolor="#000000"
     borderopacity="0.25"
     inkscape:showpageshadow="2"
     inkscape:pageopacity="0.0"
     inkscape:pagecheckerboard="0"
     inkscape:deskcolor="#d1d1d1"
     inkscape:zoom="5.0588225"
     inkscape:cx="108.42444"
     inkscape:cy="29.552332"
     inkscape:window-width="1920"
     inkscape:window-height="991"
     inkscape:window-x="-9"
     inkscape:window-y="-9"
     inkscape:window-maximized="1"
     inkscape:current-layer="g14" />
  <g
     clip-path="url(#clip0_688_134974)"
     id="g14">
    <path
       d="M 11.8858,0.29867 C 9.40001,1.19467 7.37379,3.66934 6.99779,6.22934 6.91423,6.784 6.74712,7.31734 6.6009,7.424 6.47557,7.53067 5.8489,7.72267 5.20135,7.872 c -4.05245,0.87467 -6.392,5.696 -4.59556,9.5147 0.62667,1.3866 2.19333,3.0293 3.27956,3.4986 0.564,0.2347 0.66844,0.4054 0.77288,1.216 0.20889,1.9627 1.75467,3.392 3.92712,3.648 1.10711,0.128 1.50395,0.512 1.316,1.2587 C 9.65068,28.0533 9.29557,32 9.46268,32 c 0.08355,0 1.08622,-0.896 2.19332,-1.984 2.7156,-2.688 3.8018,-3.6693 4.4285,-3.9893 0.3968,-0.2347 2.0888,-0.2987 7.3111,-0.2987 l 6.8097,-0.0213 1.0236,-0.5547 C 31.96,24.768 32.4613,24.32 32.9,23.5733 l 0.6267,-1.024 0.0626,-5.0346 C 33.6729,11.776 33.5267,10.624 32.5449,9.472 31.3125,8.04267 30.6858,7.872 26.4453,7.76534 24.3773,7.72267 22.4556,7.63733 22.2049,7.57334 21.8707,7.488 21.7036,7.25334 21.62,6.656 21.1396,3.66934 19.2596,1.216 16.732,0.320004 15.604,-0.0639954 12.9302,-0.085331 11.8858,0.29867 Z M 31.02,10.2613 c 0.7938,0.8107 0.94,1.7494 0.9191,6.5067 0,4.9493 -0.1253,5.7387 -1.0235,6.528 l -0.6267,0.5973 h -6.8933 c -5.64,0 -7.0396,0.064 -7.6454,0.32 -0.4177,0.1707 -1.504,0.96 -2.4022,1.728 l -1.6711,1.4294 0.0418,-1.408 c 0.0626,-1.8134 -0.1462,-2.0694 -1.6711,-2.0694 -1.7547,0 -2.6947,-0.3413 -3.15426,-1.1306 -0.22977,-0.384 -0.41777,-0.7894 -0.41777,-0.9387 0,-0.192 2.10978,-0.2773 8.52263,-0.32 8.3556,-0.064 8.5227,-0.064 9.5463,-0.5547 3.0288,-1.4293 4.7626,-5.2693 3.76,-8.3413 -0.188,-0.6187 -0.6894,-1.536 -1.0863,-2.0693 L 26.508,9.55733 28.4925,9.64267 c 1.8173,0.064 2.0471,0.10667 2.5275,0.61863 z m -9.6089,1.1307 c 0.376,0.1707 0.7938,0.4907 0.9191,0.7253 0.3969,0.768 0.2716,1.8987 -0.2715,2.5387 -0.5014,0.5973 -0.5431,0.5973 -3.5094,0.704 l -2.9871,0.1067 -1.4204,0.9173 -1.3996,0.896 v -0.96 -0.96 h -2.6111 c -2.86176,0 -3.5302,-0.192 -3.98975,-1.088 -0.56401,-1.1307 -0.18801,-2.4107 0.85644,-2.88 0.94,-0.4267 13.41071,-0.4267 14.41331,0 z"
       fill="#6338f6"
       id="path1"
       style="display:inline" />
    <path
       d="m 10.6533,12.779 c -0.3342,0.6613 0.0836,1.344 0.7729,1.2587 0.7103,-0.0854 1.0863,-0.6827 0.7729,-1.1947 -0.3342,-0.5547 -1.2533,-0.5973 -1.5458,-0.064 z"
       fill="#6338f6"
       id="path2"
       style="display:inline" />
    <path
       d="m 13.4107,12.6294 c -0.564,0.576 -0.1253,1.4507 0.7311,1.4507 0.6058,0 1.0027,-0.704 0.6894,-1.28 -0.2507,-0.4694 -1.0236,-0.576 -1.4205,-0.1707 z"
       fill="#6338f6"
       id="path3"
       style="display:inline" />
    <path
       d="m 16.1263,12.6294 c -0.564,0.576 -0.1253,1.4507 0.7311,1.4507 0.6058,0 1.0027,-0.704 0.6893,-1.28 -0.2506,-0.4694 -1.0235,-0.576 -1.4204,-0.1707 z"
       fill="#6338f6"
       id="path4"
       style="display:inline" />
    <path
       d="m 150.504,5.1626 c -0.062,0.14933 -0.083,4.45866 -0.062,9.5573 l 0.062,9.28 1.504,0.064 1.504,0.064 0.063,-4.3733 c 0.063,-4.7573 0.104,-4.928 1.441,-5.9307 0.627,-0.4906 2.131,-0.576 3.029,-0.2133 1.274,0.5547 1.442,1.152 1.504,6.08 l 0.084,4.4373 1.483,-0.064 1.504,-0.064 0.063,-3.84 c 0.083,-5.7813 -0.356,-7.5306 -2.236,-8.9386 -1.65,-1.25871 -4.449,-1.1947 -6.329,0.128 l -0.585,0.4053 V 9.59993 c 0,-2.45333 -0.25,-3.264 -1.232,-4.11733 -0.71,-0.59734 -1.63,-0.768 -1.797,-0.32 z"
       fill="#6338f6"
       id="path5"
       style="display:none" />
    <path
       d="m 42.0285,6.44311 c -0.1671,0.17067 -0.2507,1.152 -0.2507,2.96534 0,3.02935 -0.0418,2.96535 1.5667,2.96535 1.4622,0 1.5666,-0.1067 1.5666,-1.4934 0,-0.7253 0.1045,-1.30129 0.2716,-1.42929 0.4387,-0.32 5.5773,0.02134 6.3293,0.42667 1.88,1.00262 2.8618,2.83732 2.8827,5.31202 0,1.408 -0.1044,1.8133 -0.6267,2.88 -1.1071,2.2186 -2.9035,3.0506 -6.6426,3.0506 -2.2769,0 -2.2143,0.064 -2.2143,-2.1546 v -1.472 h -1.5666 -1.5667 v 3.0506 c 0,2.0907 0.0836,3.136 0.2507,3.3067 0.3969,0.4053 7.4155,0.3413 9.1284,-0.064 4.0734,-0.9813 6.4756,-4.2027 6.4965,-8.64 0,-4.5013 -2.7365,-7.93599 -6.9769,-8.72532 -1.7547,-0.32 -8.3138,-0.32 -8.648,0.02133 z"
       fill="#6338f6"
       id="path6"
       style="display:none;image-rendering:auto" />
    <path
       d="m 181.044,7.61647 c -0.083,0.064 -0.146,0.74667 -0.146,1.49334 0,1.25869 -0.021,1.34399 -0.481,1.34399 -0.856,0 -1.42,0.768 -1.357,1.7707 0.062,0.896 0.062,0.896 0.961,0.96 l 0.877,0.064 v 3.2853 c 0,1.8133 0.104,3.776 0.23,4.3733 0.271,1.2587 1.19,2.4747 2.214,2.9014 0.961,0.4266 2.945,0.384 3.823,-0.0854 0.877,-0.448 1.023,-1.024 0.417,-1.8133 -0.397,-0.4907 -0.605,-0.576 -1.566,-0.576 -0.961,0 -1.17,-0.0853 -1.546,-0.5547 -0.397,-0.5333 -0.439,-0.8533 -0.439,-4.0533 v -3.4987 h 1.149 c 0.961,0 1.253,-0.0853 1.671,-0.5333 0.502,-0.4907 0.648,-1.216 0.397,-1.8987 -0.104,-0.2773 -0.459,-0.3413 -1.671,-0.3413 h -1.546 V 9.62181 c 0,-1.28001 -0.814,-2.15467 -1.963,-2.15467 -0.502,0 -0.961,0.064 -1.024,0.14933 z"
       fill="#6338f6"
       id="path7"
       style="display:none" />
    <path
       d="m 140.582,10.3041 c -2.047,0.5973 -3.948,2.3893 -4.491,4.2666 -0.418,1.4294 -0.397,3.6694 0.042,5.056 0.459,1.4507 1.838,3.008 3.363,3.776 1.462,0.7254 3.739,0.832 5.306,0.2134 1.002,-0.4054 2.674,-2.0054 2.674,-2.5814 0,-0.1706 -0.418,-0.6186 -0.94,-0.9813 l -0.94,-0.6613 -0.878,0.7466 c -1.713,1.5147 -3.906,1.2587 -5.264,-0.5973 -0.376,-0.4907 -0.438,-0.896 -0.438,-2.4747 0,-1.5786 0.062,-1.984 0.438,-2.4746 1.4,-1.9414 4.011,-2.112 5.431,-0.3627 0.523,0.6613 1.087,0.5333 1.609,-0.3413 1.065,-1.8347 -0.606,-3.5414 -3.698,-3.7547 -0.71,-0.064 -1.692,0.0213 -2.214,0.1707 z"
       fill="#6338f6"
       id="path8"
       style="display:none" />
    <path
       d="m 73.3826,10.5813 c -1.1906,0.448 -2.5693,1.728 -3.3004,3.0934 -0.7938,1.4933 -0.9818,4.2026 -0.4178,5.9306 0.5222,1.6214 1.7338,3.072 3.1751,3.776 1.0654,0.5547 1.4413,0.6187 3.196,0.6187 1.9218,0 2.068,-0.0427 3.6556,-0.8533 1.9218,-0.9814 2.1306,-1.3867 1.1071,-2.0267 -0.752,-0.4907 -1.8382,-0.4907 -3.4467,0 -1.7547,0.5333 -3.6764,-0.192 -4.5329,-1.7067 -0.3342,-0.576 -0.4386,-1.1093 -0.4386,-2.3466 0,-1.2374 0.1044,-1.7707 0.4386,-2.3467 1.2743,-2.24 4.4494,-2.304 5.6609,-0.1067 C 79.2106,15.936 79.1688,16 77.3724,16 h -1.5667 l -0.4386,0.9813 c -0.2507,0.5974 -0.3343,1.0667 -0.2298,1.1734 0.1044,0.1066 1.6502,0.1706 3.4258,0.1493 L 81.78,18.24 81.7591,16.5333 c 0,-1.408 -0.1045,-1.8986 -0.5431,-2.7733 -0.6894,-1.3227 -1.8592,-2.5173 -3.0916,-3.072 -1.128,-0.5333 -3.4258,-0.576 -4.7418,-0.1067 z"
       fill="#6338f6"
       id="path9"
       style="display:none" />
    <path
       d="m 87.7751,10.5813 c -1.2951,0.3414 -2.1516,0.768 -2.5485,1.2587 -0.2297,0.2987 -0.2088,0.4907 0.1672,1.3013 0.5013,1.0454 0.8355,1.152 1.9426,0.576 0.8982,-0.4693 3.4467,-0.6186 4.1569,-0.2346 0.8982,0.4906 1.2533,1.536 1.2533,3.712 0,1.8133 -0.0417,2.0053 -0.6266,2.8373 -0.3551,0.4907 -0.94,1.088 -1.316,1.3227 -1.4414,0.9173 -3.4676,-0.1067 -3.196,-1.6 0.1462,-0.7254 0.7938,-1.408 1.3786,-1.408 0.2716,0 0.3969,-0.2347 0.4805,-1.0027 0.0627,-0.576 0.0627,-1.088 0,-1.1733 -0.2089,-0.384 -1.7338,-0.1494 -2.7991,0.4266 -1.4414,0.768 -2.068,1.8134 -2.068,3.4134 0,2.1546 1.2324,3.6266 3.4466,4.096 1.5667,0.3413 2.5903,0.0213 3.8018,-1.1734 0.5431,-0.5333 1.0027,-0.96 1.0236,-0.96 0.0418,0 0.0835,0.448 0.1253,1.0027 L 93.06,24 l 1.1071,0.064 c 1.7964,0.1067 1.7547,0.2347 1.6711,-5.184 -0.0627,-4.1813 -0.1253,-4.8 -0.5013,-5.6533 -1.1071,-2.496 -4.1987,-3.58402 -7.5618,-2.6454 z"
       fill="#6338f6"
       id="path10"
       style="display:none" />
    <path
       d="m 125.856,10.6242 c -1.818,0.64 -2.632,1.472 -3.029,3.072 -0.439,1.792 0.438,3.6267 2.068,4.288 0.438,0.192 1.545,0.4694 2.465,0.6614 2.297,0.448 2.778,0.6826 2.778,1.4293 0,0.4053 -0.167,0.7253 -0.522,0.96 -0.773,0.512 -3.656,0.32 -4.868,-0.32 -0.501,-0.256 -1.044,-0.4267 -1.19,-0.3627 -0.272,0.1067 -1.149,1.8774 -1.149,2.304 0,0.3627 2.298,1.2374 3.781,1.4507 1.483,0.2133 3.238,0.064 4.407,-0.4053 1.003,-0.384 2.235,-1.7067 2.486,-2.6454 0.689,-2.6453 -0.856,-4.4373 -4.407,-5.056 -2.131,-0.3626 -2.695,-0.6186 -2.841,-1.1946 -0.188,-0.768 0.041,-1.1307 0.898,-1.5147 0.919,-0.384 2.548,-0.256 3.99,0.2987 1.086,0.4266 1.399,0.2133 1.399,-1.0027 0,-0.576 -0.167,-0.9813 -0.501,-1.3653 -0.898,-0.9814 -3.844,-1.28002 -5.765,-0.5974 z"
       fill="#6338f6"
       id="path11"
       style="display:none" />
    <path
       d="m 168.824,10.5813 c -1.295,0.3414 -2.152,0.768 -2.548,1.2587 -0.23,0.2987 -0.209,0.4907 0.167,1.3013 0.501,1.0454 0.835,1.152 1.942,0.576 0.899,-0.4693 3.447,-0.6186 4.157,-0.2346 0.898,0.4906 1.254,1.536 1.254,3.712 0,1.8133 -0.042,2.0053 -0.627,2.8373 -0.355,0.4907 -0.94,1.088 -1.316,1.3227 -1.441,0.9173 -3.468,-0.1067 -3.196,-1.6 0.146,-0.7254 0.794,-1.408 1.379,-1.408 0.229,0 0.48,-0.32 0.71,-0.9174 0.543,-1.472 0.522,-1.4933 -1.024,-1.3866 -2.569,0.2133 -4.073,1.6853 -4.073,4.0106 0,2.112 1.253,3.584 3.488,4.0534 1.483,0.3413 2.486,0.0213 3.739,-1.1734 0.544,-0.5333 1.024,-0.96 1.045,-0.96 0.042,0 0.083,0.448 0.125,1.0027 l 0.063,1.024 1.107,0.064 c 1.796,0.1067 1.755,0.2347 1.671,-5.1627 -0.063,-4.224 -0.104,-4.8213 -0.501,-5.6746 -1.128,-2.496 -4.22,-3.58402 -7.562,-2.6454 z"
       fill="#6338f6"
       id="path12"
       style="display:none" />
    <path
       d="m 60.7866,17.2799 v 6.848 l 1.5249,-0.064 1.504,-0.064 0.1045,-4.16 c 0.0835,-3.4773 0.1671,-4.2666 0.4804,-4.864 0.4387,-0.8106 1.7547,-1.5146 2.82,-1.536 0.6476,0 0.6684,-0.0426 0.6684,-0.8533 0,-1.088 -0.7728,-1.92 -1.7546,-1.92 -0.7102,0 -2.2142,0.9173 -2.2142,1.344 0,0.1493 -0.188,-0.0427 -0.4178,-0.4267 -0.4805,-0.832 -1.0027,-1.1306 -1.9636,-1.1306 h -0.752 z"
       fill="#6338f6"
       id="path13"
       inkscape:label="path13"
       style="display:none;mix-blend-mode:normal" />
    <path
       d="m 103.504,10.8586 c -0.459,0.2133 -1.023,0.5973 -1.232,0.8533 l -0.397,0.448 -0.689,-0.7466 c -0.522,-0.5974 -0.815,-0.7467 -1.4207,-0.7467 h -0.752 v 6.72 6.72 h 1.4417 1.441 l 0.084,-4.224 c 0.083,-4.672 0.229,-5.248 1.483,-6.016 0.814,-0.512 2.381,-0.5547 3.029,-0.0853 0.981,0.704 1.107,1.3013 1.148,5.9093 l 0.042,4.3093 1.525,0.064 1.504,0.064 v -3.7973 c 0,-4.16 0.167,-5.0987 1.024,-6.08 0.48,-0.5547 0.752,-0.6827 1.713,-0.7467 1.378,-0.1066 2.047,0.2134 2.527,1.216 0.313,0.64 0.376,1.3867 0.376,5.056 v 4.3307 h 1.588 1.587 l -0.083,-4.9707 c -0.063,-4.6933 -0.105,-4.992 -0.564,-5.9733 -0.564,-1.1733 -1.692,-2.1973 -2.737,-2.496 -1.17,-0.3413 -3.154,-0.256 -4.073,0.192 -0.46,0.2133 -1.128,0.6827 -1.483,1.0453 l -0.648,0.6614 -0.606,-0.6614 c -0.334,-0.3626 -0.981,-0.832 -1.441,-1.0453 -1.107,-0.5333 -3.259,-0.5333 -4.387,0 z"
       fill="#6338f6"
       id="path14"
       inkscape:label="path14"
       style="display:none" />
    <text
       xml:space="preserve"
       style="font-size:26.6667px;letter-spacing:2px;fill:#6338f6;fill-opacity:1"
       x="39.32608"
       y="24.313959"
       id="text14"><tspan
         sodipodi:role="line"
         id="tspan14"
         x="39.32608"
         y="24.313959"
         style="font-style:normal;font-variant:normal;font-weight:normal;font-stretch:normal;font-family:'OCR A Extended';-inkscape-font-specification:'OCR A Extended';letter-spacing:2px;fill:#6338f6;fill-opacity:1">Kallaris</tspan></text>
  </g>
  <defs
     id="defs14">
    <clipPath
       id="clip0_688_134974">
      <rect
         width="188"
         height="32"
         fill="white"
         id="rect14" />
    </clipPath>
  </defs>
</svg>

<svg width="188" height="32" viewBox="0 0 188 32" fill="none" xmlns="http://www.w3.org/2000/svg">
<g clip-path="url(#clip0_688_134974)">
<path d="M11.8858 0.29867C9.40001 1.19467 7.37379 3.66934 6.99779 6.22934C6.91423 6.784 6.74712 7.31734 6.6009 7.424C6.47557 7.53067 5.8489 7.72267 5.20135 7.872C1.1489 8.74667 -1.19065 13.568 0.60579 17.3867C1.23246 18.7733 2.79912 20.416 3.88535 20.8853C4.44935 21.12 4.55379 21.2907 4.65823 22.1013C4.86712 24.064 6.4129 25.4933 8.58535 25.7493C9.69246 25.8773 10.0893 26.2613 9.90135 27.008C9.65068 28.0533 9.29557 32 9.46268 32C9.54623 32 10.5489 31.104 11.656 30.016C14.3716 27.328 15.4578 26.3467 16.0845 26.0267C16.4813 25.792 18.1733 25.728 23.3956 25.728L30.2053 25.7067L31.2289 25.152C31.96 24.768 32.4613 24.32 32.9 23.5733L33.5267 22.5493L33.5893 17.5147C33.6729 11.776 33.5267 10.624 32.5449 9.472C31.3125 8.04267 30.6858 7.872 26.4453 7.76534C24.3773 7.72267 22.4556 7.63733 22.2049 7.57334C21.8707 7.488 21.7036 7.25334 21.62 6.656C21.1396 3.66934 19.2596 1.216 16.732 0.320004C15.604 -0.0639954 12.9302 -0.085331 11.8858 0.29867ZM31.02 10.2613C31.8138 11.072 31.96 12.0107 31.9391 16.768C31.9391 21.7173 31.8138 22.5067 30.9156 23.296L30.2889 23.8933H23.3956C17.7556 23.8933 16.356 23.9573 15.7502 24.2133C15.3325 24.384 14.2462 25.1733 13.348 25.9413L11.6769 27.3707L11.7187 25.9627C11.7813 24.1493 11.5725 23.8933 10.0476 23.8933C8.2929 23.8933 7.3529 23.552 6.89334 22.7627C6.66357 22.3787 6.47557 21.9733 6.47557 21.824C6.47557 21.632 8.58535 21.5467 14.9982 21.504C23.3538 21.44 23.5209 21.44 24.5445 20.9493C27.5733 19.52 29.3071 15.68 28.3045 12.608C28.1165 11.9893 27.6151 11.072 27.2182 10.5387L26.508 9.55733L28.4925 9.64267C30.3098 9.70667 30.5396 9.74934 31.02 10.2613ZM21.4111 11.392C21.7871 11.5627 22.2049 11.8827 22.3302 12.1173C22.7271 12.8853 22.6018 14.016 22.0587 14.656C21.5573 15.2533 21.5156 15.2533 18.5493 15.36L15.5622 15.4667L14.1418 16.384L12.7422 17.28V16.32V15.36H10.1311C7.26934 15.36 6.6009 15.168 6.14135 14.272C5.57734 13.1413 5.95334 11.8613 6.99779 11.392C7.93779 10.9653 20.4085 10.9653 21.4111 11.392Z" fill="#6338F6"/>
<path d="M10.6533 12.779C10.3191 13.4403 10.7369 14.123 11.4262 14.0377C12.1365 13.9523 12.5125 13.355 12.1991 12.843C11.8649 12.2883 10.9458 12.2457 10.6533 12.779Z" fill="#6338F6"/>
<path d="M13.4107 12.6294C12.8467 13.2054 13.2854 14.0801 14.1418 14.0801C14.7476 14.0801 15.1445 13.3761 14.8312 12.8001C14.5805 12.3307 13.8076 12.2241 13.4107 12.6294Z" fill="#6338F6"/>
<path d="M16.1263 12.6294C15.5623 13.2054 16.001 14.0801 16.8574 14.0801C17.4632 14.0801 17.8601 13.3761 17.5467 12.8001C17.2961 12.3307 16.5232 12.2241 16.1263 12.6294Z" fill="#6338F6"/>
<path d="M150.504 5.1626C150.442 5.31193 150.421 9.62126 150.442 14.7199L150.504 23.9999L152.008 24.0639L153.512 24.1279L153.575 19.7546C153.638 14.9973 153.679 14.8266 155.016 13.8239C155.643 13.3333 157.147 13.2479 158.045 13.6106C159.319 14.1653 159.487 14.7626 159.549 19.6906L159.633 24.1279L161.116 24.0639L162.62 23.9999L162.683 20.1599C162.766 14.3786 162.327 12.6293 160.447 11.2213C158.797 9.96259 155.998 10.0266 154.118 11.3493L153.533 11.7546V9.59993C153.533 7.1466 153.283 6.33593 152.301 5.4826C151.591 4.88526 150.671 4.7146 150.504 5.1626Z" fill="#6338F6"/>
<path d="M42.0285 6.44311C41.8614 6.61378 41.7778 7.59511 41.7778 9.40845C41.7778 12.4378 41.736 12.3738 43.3445 12.3738C44.8067 12.3738 44.9111 12.2671 44.9111 10.8804C44.9111 10.1551 45.0156 9.57911 45.1827 9.45111C45.6214 9.13111 50.76 9.47245 51.512 9.87778C53.392 10.8804 54.3738 12.7151 54.3947 15.1898C54.3947 16.5978 54.2903 17.0031 53.768 18.0698C52.6609 20.2884 50.8645 21.1204 47.1254 21.1204C44.8485 21.1204 44.9111 21.1844 44.9111 18.9658V17.4938H43.3445H41.7778V20.5444C41.7778 22.6351 41.8614 23.6804 42.0285 23.8511C42.4254 24.2564 49.444 24.1924 51.1569 23.7871C55.2303 22.8058 57.6325 19.5844 57.6534 15.1471C57.6534 10.6458 54.9169 7.21111 50.6765 6.42178C48.9218 6.10178 42.3627 6.10178 42.0285 6.44311Z" fill="#6338F6"/>
<path d="M181.044 7.61647C180.961 7.68047 180.898 8.36314 180.898 9.10981C180.898 10.3685 180.877 10.4538 180.417 10.4538C179.561 10.4538 178.997 11.2218 179.06 12.2245C179.122 13.1205 179.122 13.1205 180.021 13.1845L180.898 13.2485V16.5338C180.898 18.3471 181.002 20.3098 181.128 20.9071C181.399 22.1658 182.318 23.3818 183.342 23.8085C184.303 24.2351 186.287 24.1925 187.165 23.7231C188.042 23.2751 188.188 22.6991 187.582 21.9098C187.185 21.4191 186.977 21.3338 186.016 21.3338C185.055 21.3338 184.846 21.2485 184.47 20.7791C184.073 20.2458 184.031 19.9258 184.031 16.7258V13.2271H185.18C186.141 13.2271 186.433 13.1418 186.851 12.6938C187.353 12.2031 187.499 11.4778 187.248 10.7951C187.144 10.5178 186.789 10.4538 185.577 10.4538H184.031V9.62181C184.031 8.3418 183.217 7.46714 182.068 7.46714C181.566 7.46714 181.107 7.53114 181.044 7.61647Z" fill="#6338F6"/>
<path d="M140.582 10.3041C138.535 10.9014 136.634 12.6934 136.091 14.5707C135.673 16.0001 135.694 18.2401 136.133 19.6267C136.592 21.0774 137.971 22.6347 139.496 23.4027C140.958 24.1281 143.235 24.2347 144.802 23.6161C145.804 23.2107 147.476 21.6107 147.476 21.0347C147.476 20.8641 147.058 20.4161 146.536 20.0534L145.596 19.3921L144.718 20.1387C143.005 21.6534 140.812 21.3974 139.454 19.5414C139.078 19.0507 139.016 18.6454 139.016 17.0667C139.016 15.4881 139.078 15.0827 139.454 14.5921C140.854 12.6507 143.465 12.4801 144.885 14.2294C145.408 14.8907 145.972 14.7627 146.494 13.8881C147.559 12.0534 145.888 10.3467 142.796 10.1334C142.086 10.0694 141.104 10.1547 140.582 10.3041Z" fill="#6338F6"/>
<path d="M73.3826 10.5813C72.192 11.0293 70.8133 12.3093 70.0822 13.6747C69.2884 15.168 69.1004 17.8773 69.6644 19.6053C70.1866 21.2267 71.3982 22.6773 72.8395 23.3813C73.9049 23.936 74.2808 24 76.0355 24C77.9573 24 78.1035 23.9573 79.6911 23.1467C81.6129 22.1653 81.8217 21.76 80.7982 21.12C80.0462 20.6293 78.96 20.6293 77.3515 21.12C75.5968 21.6533 73.6751 20.928 72.8186 19.4133C72.4844 18.8373 72.38 18.304 72.38 17.0667C72.38 15.8293 72.4844 15.296 72.8186 14.72C74.0929 12.48 77.268 12.416 78.4795 14.6133C79.2106 15.936 79.1688 16 77.3724 16H75.8057L75.3671 16.9813C75.1164 17.5787 75.0328 18.048 75.1373 18.1547C75.2417 18.2613 76.7875 18.3253 78.5631 18.304L81.78 18.24L81.7591 16.5333C81.7591 15.1253 81.6546 14.6347 81.216 13.76C80.5266 12.4373 79.3568 11.2427 78.1244 10.688C76.9964 10.1547 74.6986 10.112 73.3826 10.5813Z" fill="#6338F6"/>
<path d="M87.7751 10.5813C86.48 10.9227 85.6235 11.3493 85.2266 11.84C84.9969 12.1387 85.0178 12.3307 85.3938 13.1413C85.8951 14.1867 86.2293 14.2933 87.3364 13.7173C88.2346 13.248 90.7831 13.0987 91.4933 13.4827C92.3915 13.9733 92.7466 15.0187 92.7466 17.1947C92.7466 19.008 92.7049 19.2 92.12 20.032C91.7649 20.5227 91.18 21.12 90.804 21.3547C89.3626 22.272 87.3364 21.248 87.608 19.7547C87.7542 19.0293 88.4018 18.3467 88.9866 18.3467C89.2582 18.3467 89.3835 18.112 89.4671 17.344C89.5298 16.768 89.5298 16.256 89.4671 16.1707C89.2582 15.7867 87.7333 16.0213 86.668 16.5973C85.2266 17.3653 84.6 18.4107 84.6 20.0107C84.6 22.1653 85.8324 23.6373 88.0466 24.1067C89.6133 24.448 90.6369 24.128 91.8484 22.9333C92.3915 22.4 92.8511 21.9733 92.872 21.9733C92.9138 21.9733 92.9555 22.4213 92.9973 22.976L93.06 24L94.1671 24.064C95.9635 24.1707 95.9218 24.2987 95.8382 18.88C95.7755 14.6987 95.7129 14.08 95.3369 13.2267C94.2298 10.7307 91.1382 9.64268 87.7751 10.5813Z" fill="#6338F6"/>
<path d="M125.856 10.6242C124.038 11.2642 123.224 12.0962 122.827 13.6962C122.388 15.4882 123.265 17.3229 124.895 17.9842C125.333 18.1762 126.44 18.4536 127.36 18.6456C129.657 19.0936 130.138 19.3282 130.138 20.0749C130.138 20.4802 129.971 20.8002 129.616 21.0349C128.843 21.5469 125.96 21.3549 124.748 20.7149C124.247 20.4589 123.704 20.2882 123.558 20.3522C123.286 20.4589 122.409 22.2296 122.409 22.6562C122.409 23.0189 124.707 23.8936 126.19 24.1069C127.673 24.3202 129.428 24.1709 130.597 23.7016C131.6 23.3176 132.832 21.9949 133.083 21.0562C133.772 18.4109 132.227 16.6189 128.676 16.0002C126.545 15.6376 125.981 15.3816 125.835 14.8056C125.647 14.0376 125.876 13.6749 126.733 13.2909C127.652 12.9069 129.281 13.0349 130.723 13.5896C131.809 14.0162 132.122 13.8029 132.122 12.5869C132.122 12.0109 131.955 11.6056 131.621 11.2216C130.723 10.2402 127.777 9.94158 125.856 10.6242Z" fill="#6338F6"/>
<path d="M168.824 10.5813C167.529 10.9227 166.672 11.3493 166.276 11.84C166.046 12.1387 166.067 12.3307 166.443 13.1413C166.944 14.1867 167.278 14.2933 168.385 13.7173C169.284 13.248 171.832 13.0987 172.542 13.4827C173.44 13.9733 173.796 15.0187 173.796 17.1947C173.796 19.008 173.754 19.2 173.169 20.032C172.814 20.5227 172.229 21.12 171.853 21.3547C170.412 22.272 168.385 21.248 168.657 19.7547C168.803 19.0293 169.451 18.3467 170.036 18.3467C170.265 18.3467 170.516 18.0267 170.746 17.4293C171.289 15.9573 171.268 15.936 169.722 16.0427C167.153 16.256 165.649 17.728 165.649 20.0533C165.649 22.1653 166.902 23.6373 169.137 24.1067C170.62 24.448 171.623 24.128 172.876 22.9333C173.42 22.4 173.9 21.9733 173.921 21.9733C173.963 21.9733 174.004 22.4213 174.046 22.976L174.109 24L175.216 24.064C177.012 24.1707 176.971 24.2987 176.887 18.9013C176.824 14.6773 176.783 14.08 176.386 13.2267C175.258 10.7307 172.166 9.64268 168.824 10.5813Z" fill="#6338F6"/>
<path d="M60.7866 17.2799V24.1279L62.3115 24.0639L63.8155 23.9999L63.92 19.8399C64.0035 16.3626 64.0871 15.5733 64.4004 14.9759C64.8391 14.1653 66.1551 13.4613 67.2204 13.4399C67.868 13.4399 67.8888 13.3973 67.8888 12.5866C67.8888 11.4986 67.116 10.6666 66.1342 10.6666C65.424 10.6666 63.92 11.5839 63.92 12.0106C63.92 12.1599 63.732 11.9679 63.5022 11.5839C63.0217 10.7519 62.4995 10.4533 61.5386 10.4533H60.7866V17.2799Z" fill="#6338F6"/>
<path d="M103.504 10.8586C103.045 11.0719 102.481 11.4559 102.272 11.7119L101.875 12.1599L101.186 11.4133C100.664 10.8159 100.371 10.6666 99.7653 10.6666H99.0133V17.3866V24.1066H100.455H101.896L101.98 19.8826C102.063 15.2106 102.209 14.6346 103.463 13.8666C104.277 13.3546 105.844 13.3119 106.492 13.7813C107.473 14.4853 107.599 15.0826 107.64 19.6906L107.682 23.9999L109.207 24.0639L110.711 24.1279V20.3306C110.711 16.1706 110.878 15.2319 111.735 14.2506C112.215 13.6959 112.487 13.5679 113.448 13.5039C114.826 13.3973 115.495 13.7173 115.975 14.7199C116.288 15.3599 116.351 16.1066 116.351 19.7759V24.1066H117.939H119.526L119.443 19.1359C119.38 14.4426 119.338 14.1439 118.879 13.1626C118.315 11.9893 117.187 10.9653 116.142 10.6666C114.972 10.3253 112.988 10.4106 112.069 10.8586C111.609 11.0719 110.941 11.5413 110.586 11.9039L109.938 12.5653L109.332 11.9039C108.998 11.5413 108.351 11.0719 107.891 10.8586C106.784 10.3253 104.632 10.3253 103.504 10.8586Z" fill="#6338F6"/>
</g>
<defs>
<clipPath id="clip0_688_134974">
<rect width="188" height="32" fill="white"/>
</clipPath>
</defs>
</svg>
